svg/source_merge.svg

<svg xmlns="http://www.w3.org/2000/svg" viewBox="0 0 24 24"><path d="M7 3a3 3 0 0 1 3 3c0 1.29-.81 2.39-1.96 2.81.54 5 5.04 5.96 7.15 6.15A2.985 2.985 0 0 1 18 13a3 3 0 0 1 3 3 3 3 0 0 1-3 3c-1.31 0-2.43-.84-2.84-2-4.25-.2-5.72-1.81-7.16-3.61v1.78c1.17.41 2 1.52 2 2.83a3 3 0 0 1-3 3 3 3 0 0 1-3-3c0-1.31.83-2.42 2-2.83V8.83A2.99 2.99 0 0 1 4 6a3 3 0 0 1 3-3m0 2a1 1 0 0 0-1 1 1 1 0 0 0 1 1 1 1 0 0 0 1-1 1 1 0 0 0-1-1m0 12a1 1 0 0 0-1 1 1 1 0 0 0 1 1 1 1 0 0 0 1-1 1 1 0 0 0-1-1m11-2a1 1 0 0 0-1 1 1 1 0 0 0 1 1 1 1 0 0 0 1-1 1 1 0 0 0-1-1"/></svg>

<?xml version="1.0" encoding="UTF-8"?><!DOCTYPE svg PUBLIC "-//W3C//DTD SVG 1.1//EN" "http://www.w3.org/Graphics/SVG/1.1/DTD/svg11.dtd"><svg xmlns="http://www.w3.org/2000/svg" xmlns:xlink="http://www.w3.org/1999/xlink" version="1.1" id="mdi-source-merge" width="24" height="24" viewBox="0 0 24 24"><path d="M7,3A3,3 0 0,1 10,6C10,7.29 9.19,8.39 8.04,8.81C8.58,13.81 13.08,14.77 15.19,14.96C15.61,13.81 16.71,13 18,13A3,3 0 0,1 21,16A3,3 0 0,1 18,19C16.69,19 15.57,18.16 15.16,17C10.91,16.8 9.44,15.19 8,13.39V15.17C9.17,15.58 10,16.69 10,18A3,3 0 0,1 7,21A3,3 0 0,1 4,18C4,16.69 4.83,15.58 6,15.17V8.83C4.83,8.42 4,7.31 4,6A3,3 0 0,1 7,3M7,5A1,1 0 0,0 6,6A1,1 0 0,0 7,7A1,1 0 0,0 8,6A1,1 0 0,0 7,5M7,17A1,1 0 0,0 6,18A1,1 0 0,0 7,19A1,1 0 0,0 8,18A1,1 0 0,0 7,17M18,15A1,1 0 0,0 17,16A1,1 0 0,0 18,17A1,1 0 0,0 19,16A1,1 0 0,0 18,15Z" /></svg>
